src/lib/packages/icons/src/assets/line/filter-check.svg

<svg width="24" height="24" viewBox="0 0 24 24" fill="none" xmlns="http://www.w3.org/2000/svg">
<path d="M19.475 8.965L20.09 8.35001C20.516 7.92501 20.75 7.36 20.75 6.759V4.49899C20.75 3.25799 19.74 2.24899 18.5 2.24899H5.5C4.26 2.24899 3.25 3.25799 3.25 4.49899V6.759C3.25 7.359 3.48403 7.924 3.91003 8.349L9.02905 13.469C9.17205 13.611 9.25 13.799 9.25 13.999V17.999C9.25 18.235 9.36105 18.457 9.55005 18.599L13.55 21.599C13.683 21.698 13.841 21.749 14 21.749C14.114 21.749 14.229 21.723 14.335 21.67C14.59 21.543 14.75 21.283 14.75 20.999V17.156C15.423 17.522 16.182 17.749 17 17.749C19.619 17.749 21.75 15.618 21.75 12.999C21.75 11.291 20.834 9.802 19.475 8.965ZM10.75 17.625V14C10.75 13.4 10.516 12.835 10.09 12.41L4.97095 7.29001C4.82795 7.14801 4.75 6.96001 4.75 6.76001V4.5C4.75 4.086 5.087 3.75 5.5 3.75H18.5C18.913 3.75 19.25 4.086 19.25 4.5V6.76001C19.25 6.95901 19.1721 7.14701 19.0291 7.29001L17.968 8.35101C17.655 8.28601 17.331 8.25 16.999 8.25C14.38 8.25 12.249 10.381 12.249 13C12.249 14.088 12.631 15.08 13.249 15.881V19.5L10.75 17.625ZM17 16.25C15.208 16.25 13.75 14.792 13.75 13C13.75 11.208 15.208 9.75 17 9.75C18.792 9.75 20.25 11.208 20.25 13C20.25 14.792 18.792 16.25 17 16.25ZM18.78 11.636C19.073 11.929 19.073 12.404 18.78 12.697L17.113 14.364C16.972 14.504 16.782 14.583 16.583 14.583C16.384 14.583 16.193 14.504 16.053 14.363L15.22 13.53C14.927 13.237 14.927 12.762 15.22 12.469C15.513 12.177 15.988 12.176 16.281 12.469L16.584 12.772L17.7209 11.636C18.0129 11.344 18.487 11.344 18.78 11.636Z" fill="currentColor"/>
</svg>

<svg xmlns="http://www.w3.org/2000/svg" width="24" height="24" fill="none"><path fill="currentColor" d="m19.475 8.965.615-.615c.426-.425.66-.99.66-1.591v-2.26c0-1.241-1.01-2.25-2.25-2.25h-13a2.253 2.253 0 0 0-2.25 2.25v2.26c0 .6.234 1.165.66 1.59l5.119 5.12c.143.142.221.33.221.53v4a.75.75 0 0 0 .3.6l4 3a.753.753 0 0 0 .785.071.749.749 0 0 0 .415-.671v-3.843a4.69 4.69 0 0 0 2.25.593 4.756 4.756 0 0 0 4.75-4.75c0-1.708-.916-3.197-2.275-4.034Zm-8.725 8.66V14c0-.6-.234-1.165-.66-1.59L4.971 7.29a.741.741 0 0 1-.221-.53V4.5a.75.75 0 0 1 .75-.75h13a.75.75 0 0 1 .75.75v2.26a.745.745 0 0 1-.22.53l-1.062 1.061A4.756 4.756 0 0 0 12.249 13c0 1.088.382 2.08 1 2.881V19.5l-2.499-1.875ZM17 16.25A3.254 3.254 0 0 1 13.75 13 3.254 3.254 0 0 1 17 9.75 3.254 3.254 0 0 1 20.25 13 3.254 3.254 0 0 1 17 16.25Zm1.78-4.614a.75.75 0 0 1 0 1.061l-1.667 1.667a.752.752 0 0 1-1.06-.001l-.833-.833a.75.75 0 1 1 1.061-1.061l.303.303 1.137-1.136a.75.75 0 0 1 1.059 0Z"/></svg>
